!!!OTL: Yankee Doodle Boy
!!!COM: unknown
!!!ODT: unknown
!!!YOR: The Holiday Song Book
!!!YOY: 1977
!!!AST: Patriotic song
!!!YEC: Brian Luke, 2001
**kern	**harm
*k[b-]	*k[b-]
*M4/4	*M4/4
*F:	*F:
*>A	*>A
=1	=1
2.a	I
4g	.
=2	=2
4g	.
4f	.
4e	.
4f	.
=3	=3
1g	V7/V
=4	=4
2.d	.
4g	.
=5	=5
2.g	V7
4a	.
=6	=6
4g	.
4e	.
4d	.
4c	.
=7	=7
[1f	I
=8	=8
2.f]	.
*>B	*>B
4a	.
=9	=9
2a	V7/ii
2a	.
=10	=10
4f#	.
4g	.
4a	.
4cc	.
=11	=11
2b-	ii
2a	V7/ii
=12	=12
1g	ii
=13	=13
4g	V7/V
2f	.
4e	.
=14	=14
4d	.
2f	.
4a	.
=15	=15
[1g	V7;
=16	=16
2.g]	.
*>A'	*>A'
4g	.
=17	=17
2.a	I
4g	.
=18	=18
4g	.
4f	.
4e	.
4f	.
=19	=19
1g	V7/V
=20	=20
1d	.
=21	=21
2.g	V7
4a	.
=22	=22
4g	.
4e	.
4d	.
4c	.
=23	=23
[1f	I
=24	=24
1f]	.
*>C	*>C
=25	=25
4f	.
4f	.
4g	.
4a	.
=26	=26
4f	.
4a	.
4g	V7
4c	.
=27	=27
4f	I
4f	.
4g	.
4a	.
=28	=28
2f	.
2c	.
=29	=29
4d	V7/V
2g	.
4d	.
=30	=30
4.e	V7
8f	.
4g	.
4e	.
=31	=31
[1f	I;
=32	=32
1f]	.
*-	*-
